X:1
T:Knocking, Knocking, Who Is There?
T:Knocking, Knocking, Who Is There?
T:George Frederick Root, 1870
T:Harriet Beecher Stowe, 1867
T:Public Domain Courtesy of the Cyber Hymnal™
C:George Frederick Root, 1870
Z:Public Domain
Z:Courtesy of the Cyber Hymnal™
%%score ( 1 2 ) 3
L:1/8
Q:1/4=112
M:4/4
K:Eb
V:1 treble 
V:2 treble 
V:3 bass 
V:1
 [EG][EG] z2 [EG][EG] z2 | [EB]2 [EA]2 [EG]2 z2 | [DF][DF] z2 [DF][DF] z2 | %3
w: 1.~Knock- ing, knock- ing,|who is there?|Wait- ing, wait- ing,|
w: 2.~Knock- ing, knock- ing!|still He’s there:|Wait- ing, wait- ing,|
w: 3.~Knock- ing, knock- ing—|what, still there?|Wait- ing, wait- ing,|
 .[FA]2 .[EG]2 .[DF]2 z2 |[M:3/4] E[B,F] [EG]2 [DF]2 | [EG][FA] [GB]2 [EG]2 | E[DF] [EG]2 [FA]2 | %7
w: oh, how fair!|’Tis a pil- grim,|strange and king- ly,|Nev- er such was|
w: won- drous fair!|But the door is|hard to o- pen|For the weeds and|
w: grand and fair!|Yes, the pierc- èd|hand still knock- eth,|And be- neath the|
 [GB][Ac] [DF]4 | E[B,F] [EG]2 [DF]2 | [EG][FA] [GB]2 [EG]2 | [B,E][B,D] C2 [CF]2 | [EG][DF] E4 |] %12
w: seen be- fore,|Ah, my soul, for|such a won- der,|Wilt thou not un-|do the door?|
w: i- vy vine,|With their dark and|cling- ing ten- drils,|Ev- er round the|hing- es twine.|
w: crown- èd hair|Beam the pa- tient|eyes, so ten- der,|Of thy Sav- ior|wait- ing there.|
V:2
 x8 | x8 | x8 | x8 |[M:3/4] E x5 | x6 | E x5 | x6 | E x5 | x6 | x2 C2 x2 | x2 E4 |] %12
V:3
 [E,B,][E,B,] z2 [E,B,][E,B,] z2 | [E,C]2 [E,C]2 [E,B,]2 z2 | [B,,B,][B,,B,] z2 [B,,B,][B,,B,] z2 | %3
 .[B,,B,]2 .[B,,B,]2 .[B,,B,]2 z2 |[M:3/4] [E,G,][E,B,] [E,B,]2 [B,,B,]2 | %5
 [E,B,][E,B,] [E,B,]2 [E,B,]2 | [E,G,][B,,C] [E,B,]2 [E,B,]2 | [E,B,][E,B,] [B,,B,]4 | %8
 [E,G,][E,B,] [E,B,]2 [B,,B,]2 | [E,B,][E,B,] [E,B,]2 [E,B,]2 | [G,,B,][G,,B,] [A,,A,]2 [A,,C]2 | %11
 [B,,B,][B,,A,] [E,G,]4 |] %12

